X:365
T: Sean McKenna's #1
S: "Music from Ireland 2" (Bulmer & Sharpley)
R: reel
M: 4/4
L: 1/8
K: G
zD|GBdB cAFD|GB B2 dBcA|GBdB cAFD|GBAF G2 GD|
GABc dBcA|GABc defg|afge fdcA|GBAF G2 :|
de|fd d2 fdcA|dggf gbag|fd d2 fdcA|GBAF G2 de|
fd d2 fdcA|dggf gbag|f2 fd edcA|GBAF G2 :|
